assets/features/global-acquiring/qr-code.svg

<svg width="36" height="36" viewBox="0 0 36 36" fill="none" xmlns="http://www.w3.org/2000/svg">
<path d="M35 34.4287V35H34.4287V34.4287H35ZM29.8574 34.4287V35H29.2861V34.4287H29.8574ZM27.2861 21.5713V24.1426H34.4287V21.5713H35V29.8574H29.2861V27.2861H24.7139V35H21.5713V21.5713H27.2861ZM14.4287 21.5713V35H1V21.5713H14.4287ZM4.14258 31.8574H11.2861V24.7139H4.14258V31.8574ZM35 1V14.4287H21.5713V1H35ZM14.4287 1V14.4287H1V1H14.4287ZM4.14258 11.2861H11.2861V4.14258H4.14258V11.2861ZM24.7139 11.2861H31.8574V4.14258H24.7139V11.2861Z" stroke="#9095A1" stroke-width="2"/>
</svg>

<svg xmlns="http://www.w3.org/2000/svg" width="36" height="36" fill="none" viewBox="0 0 36 36"><path stroke="#9095a1" stroke-width="2" d="M35 34.429V35h-.571v-.571zm-5.143 0V35h-.57v-.571zm-2.57-12.858v2.572h7.142V21.57H35v8.286h-5.714v-2.57h-4.572V35H21.57V21.571zm-12.858 0V35H1V21.571zM4.143 31.857h7.143v-7.143H4.143zM35 1v13.429H21.571V1zM14.429 1v13.429H1V1zM4.143 11.286h7.143V4.143H4.143zm20.57 0h7.144V4.143h-7.143z"/></svg>
